public/images/ai22.svg

<svg width="100" height="100" viewBox="0 0 100 100" fill="none" xmlns="http://www.w3.org/2000/svg">
<path d="M27.3066 40.1989C27.4044 41.6306 27.5144 43.0706 27.5877 44.4941C27.5877 44.7649 27.8606 45.2162 27.3392 45.29C26.8178 45.3639 26.8952 44.8798 26.8015 44.609C26.3992 43.32 25.8525 42.0813 25.1721 40.9168C21.2616 34.5498 11.7785 34.6401 8.30788 41.2614C6.84184 43.9587 6.01569 46.9612 5.89414 50.0337C5.77258 53.1063 6.35892 56.1654 7.60724 58.9716C10.4139 65.556 19.5589 67.1765 24.7159 62.2085C25.6491 61.2932 26.5048 60.3011 27.274 59.2424C27.4451 59.0086 27.5877 58.5778 28.0195 58.865C28.4513 59.1521 28.1254 59.427 27.9828 59.6855C25.2658 64.8668 19.5996 67.5375 13.8519 66.9099C5.63975 65.9991 0.0468469 58.3276 1.13447 49.1504C1.99805 41.8604 6.43 36.7159 13.1024 35.1242C16.3747 34.3257 19.8241 34.7636 22.7973 36.3549C24.6955 37.3272 25.1599 37.1754 26.0805 35.2349C26.2027 34.9765 26.2435 34.6729 26.6345 34.7303C27.0256 34.7878 26.9563 35.1406 26.9726 35.399C27.0948 37.0072 27.2007 38.603 27.3066 40.1989Z" fill="#C20000"/>
<path d="M59.7071 55.0292C59.7071 57.3676 59.646 59.706 59.7071 62.0402C59.7927 64.6371 60.6766 65.433 63.2674 65.4576C63.5118 65.4576 63.7562 65.4576 64.0006 65.4576C64.245 65.4576 64.3469 65.6135 64.3469 65.8678C64.3469 66.1222 64.2165 66.2288 63.9762 66.237H63.4873C60.0249 66.237 56.5624 66.237 53.104 66.237C52.7781 66.237 52.1671 66.5406 52.1875 65.8268C52.1875 65.2524 52.7415 65.5027 53.0592 65.4658C54.9575 65.2442 55.9107 64.3868 55.9392 62.4669C56.0247 57.507 55.9962 52.5472 56.0329 47.5833C56.0329 46.9679 55.7925 46.812 55.2182 46.8325C54.4035 46.8653 53.5888 46.8325 52.7741 46.8325C52.2282 46.853 51.9838 46.7217 51.9594 46.0982C51.9349 45.4746 52.1875 45.2777 52.8026 45.2777C53.8128 45.3064 55.0715 45.6018 55.7681 45.1136C56.4647 44.6254 55.931 43.288 56.0369 42.3198C56.652 37.282 60.0656 33.9139 64.6401 34.0001C65.5175 34.0018 66.3859 34.1781 67.1954 34.5189C68.0049 34.8596 68.7396 35.3581 69.3572 35.9857C70.0212 36.6503 70.4286 37.4584 70.009 38.4471C69.4469 39.7476 68.0659 40.043 67.0231 39.0297C66.4469 38.3963 65.9134 37.7247 65.4263 37.0195C64.5465 35.8954 63.4914 35.2842 62.0331 35.6411C60.5748 35.998 60.0412 37.1877 59.866 38.5702C59.6135 40.5681 59.7234 42.5824 59.6501 44.5885C59.6257 45.2367 59.919 45.3228 60.4648 45.3105C61.6054 45.2818 62.746 45.3105 63.8866 45.3105C64.4324 45.3105 65.0231 45.13 64.9986 46.0982C64.9986 46.9884 64.4446 46.8243 63.9395 46.8284C62.8804 46.8284 61.8172 46.8817 60.7663 46.8284C59.9516 46.7751 59.6338 47.0089 59.6583 47.8991C59.7194 50.2745 59.6786 52.6539 59.6786 55.0333L59.7071 55.0292Z" fill="#C20000"/>
<path d="M70.4612 54.9513C70.4612 52.5719 70.4367 50.1965 70.4612 47.8171C70.4612 47.0951 70.3145 46.7587 69.5243 46.8284C68.734 46.8982 67.9764 46.8284 67.2065 46.8531C66.6443 46.8818 66.3918 46.7136 66.4244 46.1023C66.4244 45.5567 66.5221 45.2818 67.1535 45.3064C68.2045 45.3352 69.5569 45.6552 70.2249 45.13C70.893 44.6049 70.3879 43.1404 70.5264 42.0942C71.1822 37.1713 74.5591 33.9099 79.0807 34.0083C79.979 34.0065 80.868 34.1906 81.6928 34.549C82.5175 34.9075 83.2603 35.4328 83.8752 36.0924C84.5636 36.8267 84.8976 37.6923 84.3192 38.6646C83.6308 39.8092 82.4332 39.9815 81.4392 39.0133C80.888 38.412 80.3803 37.7718 79.9198 37.0975C79.0359 35.9406 77.9686 35.2719 76.4492 35.6657C74.9298 36.0596 74.4654 37.2205 74.2943 38.6031C74.0418 40.6009 74.1558 42.6152 74.0784 44.6213C74.054 45.2859 74.3758 45.3393 74.8931 45.327C76.1152 45.3023 77.3372 45.3475 78.5593 45.327C79.1784 45.3064 79.4188 45.4705 79.4106 46.1474C79.4025 46.8243 79.1174 46.8859 78.5959 46.8736C77.3739 46.849 76.1519 46.8941 74.9298 46.8736C74.2943 46.8531 74.0825 47.0582 74.0866 47.6941C74.1233 52.4898 74.0866 57.2897 74.164 62.0854C74.2088 64.6782 75.1294 65.4617 77.7324 65.4904C77.9768 65.4904 78.2212 65.4904 78.4656 65.4904C78.71 65.4904 78.7996 65.6627 78.7955 65.9007C78.7915 66.1386 78.6448 66.2535 78.4126 66.2576H77.1906C73.9725 66.2576 70.7586 66.2576 67.5405 66.2576C67.2268 66.2576 66.6973 66.4955 66.6403 65.9581C66.5669 65.2689 67.1739 65.5479 67.5201 65.4904C69.4102 65.2689 70.3308 64.4074 70.3716 62.4792C70.453 59.9809 70.3716 57.4784 70.3716 54.98L70.4612 54.9513Z" fill="#C20000"/>
<path d="M49.9633 62.3808C49.6538 62.6556 49.3523 62.9264 49.0509 63.2013C48.5865 63.6115 48.1262 64.0628 47.4215 63.8166C46.6312 63.5295 46.7534 62.7828 46.6679 62.1551C46.6475 61.9952 46.6679 61.827 46.6679 61.6629C46.5131 57.6097 46.7779 53.5523 46.5131 49.4991C46.3746 47.4192 45.291 46.0613 43.3806 45.3967C41.7951 44.8555 40.1077 44.6871 38.4476 44.9044C36.4108 45.1506 34.5737 45.8275 33.258 47.5218C32.4962 48.5022 32.1011 49.6017 32.4433 50.8488C32.5489 51.256 32.7918 51.6135 33.1305 51.8601C33.4691 52.1066 33.8824 52.2269 34.2994 52.2002C34.7165 52.1735 35.1113 52.0016 35.4162 51.7139C35.7212 51.4262 35.9173 51.0406 35.9709 50.6232C36.0352 50.0499 36.0556 49.4725 36.032 48.8961C36.0139 48.4002 36.145 47.9104 36.4082 47.491C36.6713 47.0715 37.0542 46.7419 37.5066 46.5454C37.9911 46.281 38.5294 46.1323 39.08 46.1109C39.6306 46.0895 40.1788 46.196 40.682 46.422C41.1852 46.648 41.6301 46.9876 41.9822 47.4145C42.3343 47.8414 42.5842 48.3441 42.7125 48.8838C42.8673 49.5155 42.8795 50.1842 43.0017 50.8242C43.2299 52.0221 42.7899 52.5842 41.6045 53.0272C38.6839 54.1185 35.698 55.1605 33.3435 57.3635C32.3245 58.3214 31.6939 59.6254 31.5736 61.024C31.4532 62.4226 31.8516 63.8165 32.6917 64.9366C34.366 67.0412 37.3315 67.3447 39.8285 65.6422C40.8347 64.9571 41.8001 64.2146 42.9284 63.39C43.0343 64.0218 43.0873 64.4648 43.1851 64.8956C43.2594 65.323 43.4571 65.719 43.7533 66.0342C44.0496 66.3493 44.4314 66.5697 44.8511 66.6678C46.7005 67.1519 50.0937 64.5223 50.1466 62.5654C50.1141 62.5244 50.0367 62.4751 49.9633 62.3808ZM42.4437 62.2372C41.0668 63.1726 39.7552 64.2884 37.9221 64.0177C36.089 63.7469 34.8344 61.4044 35.364 59.2793C35.6558 58.2041 36.3132 57.2662 37.2215 56.6292C38.7612 55.4477 40.5699 54.82 42.3174 54.0651C42.9366 53.7985 43.0017 54.0939 42.9936 54.5985C42.9936 55.702 42.9936 56.8097 42.9936 57.9132C43.0314 58.5266 43.0314 59.1418 42.9936 59.7552C42.8714 60.5962 43.4132 61.5808 42.4437 62.2413V62.2372Z" fill="#C20000"/>
<path d="M98.6253 58.4096C98.002 58.184 98.0265 59.0126 97.8391 59.3778C95.7494 63.4802 91.1341 64.3253 87.745 61.2074C85.7082 59.3449 84.9669 56.9532 84.808 54.2743C84.7591 53.4538 84.9424 53.1954 85.7816 53.2159C87.8183 53.2733 89.8551 53.2159 91.8918 53.2159C93.9286 53.2159 95.9653 53.1667 98.002 53.2364C98.9267 53.2692 99.106 52.9328 98.9593 52.1041C98.8351 51.1278 98.5887 50.1711 98.2261 49.257C95.8594 44.0059 88.4171 43.2142 84.3762 47.7802C81.1174 51.4724 80.7101 58.8567 83.5615 62.8607C85.2479 65.2319 87.5087 66.6186 90.4416 66.6924C94.23 66.7868 97.5662 63.9889 98.7068 59.7757C98.829 59.3614 99.3341 58.668 98.6253 58.4096ZM84.8528 51.4354C85.1502 49.5237 85.9608 47.9402 87.7043 46.9638C88.4033 46.5396 89.2111 46.3328 90.0264 46.3693C90.8416 46.4057 91.6281 46.6839 92.2869 47.1689C93.7982 48.1699 94.2096 49.7124 94.3522 51.3985C94.4011 51.9688 94.0752 51.9688 93.6841 51.9647C92.3032 51.9647 90.9264 51.9647 89.5455 51.9647H85.5249C85.1746 51.9606 84.7591 52.0508 84.8528 51.4354Z" fill="#C20000"/>
</svg>

<svg xmlns="http://www.w3.org/2000/svg" width="100" height="100" fill="none"><path fill="#C20000" d="M27.307 40.199c.097 1.432.207 2.872.28 4.295 0 .27.274.722-.248.796-.521.074-.444-.41-.537-.681a18 18 0 0 0-1.63-3.692c-3.91-6.367-13.394-6.277-16.864.344a20.044 20.044 0 0 0-.7 17.71c2.806 6.585 11.95 8.206 17.108 3.237a23.5 23.5 0 0 0 2.558-2.966c.171-.233.314-.664.745-.377.432.287.106.562-.036.82-2.717 5.182-8.383 7.852-14.131 7.225C5.64 66 .047 58.328 1.134 49.15c.864-7.29 5.296-12.434 11.968-14.026a13.67 13.67 0 0 1 9.695 1.23c1.898.973 2.363.821 3.284-1.12.122-.258.163-.561.553-.504.392.058.322.41.339.669.122 1.608.228 3.204.334 4.8M59.707 55.03c0 2.338-.061 4.676 0 7.01.086 2.597.97 3.393 3.56 3.418h.734c.244 0 .346.156.346.41s-.13.36-.37.369H53.103c-.326 0-.937.304-.916-.41 0-.575.553-.324.871-.361 1.899-.222 2.852-1.08 2.88-3 .086-4.959.057-9.919.094-14.883 0-.615-.24-.771-.815-.75-.815.032-1.63 0-2.444 0-.546.02-.79-.111-.815-.735-.024-.623.228-.82.844-.82 1.01.028 2.269.324 2.965-.164.697-.489.163-1.826.269-2.794.615-5.038 4.029-8.406 8.603-8.32a6.6 6.6 0 0 1 2.555.519c.81.34 1.545.84 2.162 1.467.664.664 1.072 1.472.652 2.461-.562 1.3-1.943 1.596-2.986.583a19 19 0 0 1-1.597-2.01c-.88-1.125-1.935-1.736-3.393-1.379s-1.992 1.547-2.167 2.93c-.252 1.997-.143 4.011-.216 6.018-.024.648.269.734.815.721 1.14-.028 2.281 0 3.422 0 .545 0 1.136-.18 1.112.788 0 .89-.554.726-1.06.73-1.059 0-2.122.054-3.173 0-.814-.053-1.132.18-1.108 1.071.061 2.376.02 4.755.02 7.134z"/><path fill="#C20000" d="M70.461 54.951c0-2.38-.024-4.754 0-7.134 0-.722-.147-1.058-.937-.989s-1.548 0-2.317.025c-.563.029-.815-.14-.783-.75 0-.546.098-.821.73-.797 1.05.03 2.403.35 3.07-.176.669-.525.164-1.99.302-3.036.656-4.923 4.033-8.184 8.555-8.086a6.5 6.5 0 0 1 2.612.541 6.6 6.6 0 0 1 2.182 1.543c.689.735 1.023 1.6.444 2.573-.688 1.144-1.886 1.316-2.88.348a17 17 0 0 1-1.52-1.916c-.883-1.156-1.95-1.825-3.47-1.431s-1.984 1.555-2.155 2.937c-.252 1.998-.138 4.012-.216 6.018-.024.665.298.718.815.706 1.222-.025 2.444.02 3.666 0 .62-.02.86.144.852.82-.008.677-.294.739-.815.727-1.222-.025-2.444.02-3.666 0-.636-.02-.848.184-.843.82.036 4.796 0 9.596.077 14.391.045 2.593.965 3.377 3.568 3.405h.734c.244 0 .334.173.33.41-.005.239-.151.353-.383.358H67.54c-.314 0-.844.238-.9-.3-.074-.69.533-.41.88-.468 1.89-.221 2.81-1.083 2.85-3.01.082-2.5 0-5.002 0-7.5zM49.963 62.38c-.31.276-.61.546-.912.821-.465.41-.925.862-1.63.616-.79-.288-.668-1.034-.753-1.662-.02-.16 0-.328 0-.492-.155-4.053.11-8.11-.155-12.164-.138-2.08-1.222-3.438-3.132-4.102a10.9 10.9 0 0 0-4.933-.493c-2.037.247-3.874.923-5.19 2.618-.762.98-1.157 2.08-.815 3.327.106.407.349.765.688 1.011a1.79 1.79 0 0 0 2.285-.146c.305-.288.501-.673.555-1.09q.096-.862.061-1.728a2.47 2.47 0 0 1 .376-1.405c.263-.42.646-.75 1.099-.946a3.574 3.574 0 0 1 4.475.87c.352.426.602.93.73 1.469.155.632.167 1.3.29 1.94.228 1.198-.212 1.76-1.398 2.203-2.92 1.091-5.906 2.133-8.26 4.337a5.707 5.707 0 0 0-.652 7.573c1.674 2.104 4.64 2.408 7.136.705 1.007-.685 1.972-1.427 3.1-2.252.106.632.16 1.075.257 1.506.074.427.272.823.568 1.138.297.315.678.536 1.098.634 1.85.484 5.243-2.146 5.296-4.103-.033-.04-.11-.09-.184-.184m-7.52-.143c-1.376.936-2.688 2.051-4.52 1.78-1.834-.27-3.089-2.613-2.559-4.738a4.76 4.76 0 0 1 1.858-2.65c1.54-1.181 3.348-1.809 5.095-2.564.62-.267.685.029.677.534v3.314q.056.922 0 1.842c-.123.841.42 1.826-.55 2.486z"/><path fill="#C20000" d="M98.625 58.41c-.623-.226-.599.603-.786.968-2.09 4.102-6.705 4.947-10.094 1.83-2.037-1.863-2.778-4.255-2.937-6.934-.049-.82.134-1.079.974-1.058 2.036.057 4.073 0 6.11 0s4.073-.05 6.11.02c.925.033 1.104-.303.957-1.132a11.7 11.7 0 0 0-.733-2.847c-2.367-5.251-9.809-6.043-13.85-1.477-3.259 3.692-3.666 11.077-.815 15.08 1.687 2.372 3.948 3.759 6.88 3.832 3.789.095 7.125-2.703 8.266-6.916.122-.415.627-1.108-.082-1.366m-13.772-6.975c.297-1.911 1.108-3.495 2.851-4.471a4.12 4.12 0 0 1 4.583.205c1.511 1 1.923 2.543 2.065 4.23.05.57-.277.57-.668.566h-8.159c-.35-.004-.766.086-.672-.53"/></svg>
